Gruvbox-Material-Icons/panel/16/audacious-panel.svg

<svg xmlns="http://www.w3.org/2000/svg" width="16" height="16" version="1">
 <defs>
  <style id="current-color-scheme" type="text/css">
   .ColorScheme-Text { color:#ebdbb2; } .ColorScheme-Highlight { color:#458588; }
  </style>
 </defs>
 <path style="fill:currentColor" class="ColorScheme-Text" d="M 8 1 A 7 7 0 0 0 1 8 A 7 7 0 0 0 8 15 A 7 7 0 0 0 15 8 A 7 7 0 0 0 8 1 z M 8.3300781 4.5742188 L 8.3320312 4.5742188 C 9.9318313 4.6347147 10.878739 5.7154474 10.982422 7.2929688 C 11.100671 9.0710004 10.576278 9.5352576 10.800781 9.8925781 C 11.268639 10.638922 10.606453 10.833091 10.166016 11.197266 C 9.8918072 11.42434 9.3618154 11.321092 9.0996094 10.998047 C 8.3027084 10.537044 8.6098017 11.42345 6.9648438 11.427734 C 6.1094175 11.392602 5.3251056 10.775393 5.1035156 9.9433594 C 4.7638473 8.666604 5.2609729 7.7240191 6.6484375 7.2792969 C 7.0498014 7.1507645 7.8448475 7.228693 8.1953125 6.9726562 C 8.5252124 6.7308439 8.4100687 6.3832197 8.0039062 6.3378906 C 7.4216544 6.2729388 6.5120463 6.5362838 5.9746094 6.4296875 C 5.5432546 6.344085 5.4118735 5.520251 5.6933594 5.1660156 C 6.1540196 4.5861631 7.336566 4.6109259 8.0039062 4.5800781 C 8.1170147 4.5748544 8.2238246 4.5701928 8.3300781 4.5742188 z M 8.0117188 8.1367188 C 7.4581164 8.1367187 7 8.5504853 7 9.0644531 C 7 9.5784211 7.4581163 10 8.0117188 10 C 8.5640423 10 9 9.5784211 9 9.0644531 C 9 8.5504853 8.5640423 8.1367186 8.0117188 8.1367188 z"/>
</svg>

<svg width="16" height="16" version="1" xmlns="http://www.w3.org/2000/svg">
  <defs>
    <style id="current-color-scheme" type="text/css">.ColorScheme-Text { color:#ebdbb2; } .ColorScheme-Highlight { color:#458588; } .ColorScheme-NeutralText { color:#fe8019; } .ColorScheme-PositiveText { color:#689d6a; } .ColorScheme-NegativeText { color:#fb4934; }</style>
  </defs>
  <path class="ColorScheme-Text" d="m8 1a7 7 0 0 0-7 7 7 7 0 0 0 7 7 7 7 0 0 0 7-7 7 7 0 0 0-7-7zm0.3301 3.574h0.001953c1.6 0.0605 2.547 1.141 2.65 2.719 0.1182 1.778-0.4061 2.242-0.1816 2.6 0.4679 0.7463-0.1943 0.9405-0.6348 1.305-0.2742 0.2271-0.8042 0.1238-1.066-0.1992-0.7969-0.461-0.4898 0.4254-2.135 0.4297-0.8554-0.03513-1.64-0.6523-1.861-1.484-0.3397-1.277 0.1575-2.219 1.545-2.664 0.4014-0.1285 1.196-0.0506 1.547-0.3066 0.3299-0.2418 0.2148-0.5894-0.1914-0.6348-0.5823-0.06495-1.492 0.1984-2.029 0.0918-0.4314-0.0856-0.5627-0.9094-0.2812-1.264 0.4607-0.5799 1.643-0.5551 2.311-0.5859 0.1131-0.005224 0.2199-0.009885 0.3262-0.005859zm-0.3184 3.562c-0.5536-1e-7 -1.012 0.4138-1.012 0.9277 0 0.514 0.4581 0.9355 1.012 0.9355 0.5523 0 0.9883-0.4216 0.9883-0.9355 0-0.514-0.436-0.9277-0.9883-0.9277z" fill="currentColor"/>
</svg>
